X: 040060
T: Donegal Traveller
S: Hugh Gillespie
Z: B.Black
R: reel
M: 4/4
L: 1/8
K: D
d2 FA DAFA | d2 fd Beec | d2 FA DAFA | gbag fddc |
d2 FA DAFA | d2 fd ce a2 | bgaf gefd | ceag fd d2 ||
a^gab afdf | abaf ge e2 | ad d2 Addf | gbag fdde |
a^gab afdf | abaf geef | gbag fagf | egfe fddc ||
